packages/icons/src/components/Logo/assets/dark/alma-linux.svg

<svg width="20" height="20" viewBox="0 0 20 20" fill="none" xmlns="http://www.w3.org/2000/svg">
<path d="M18.3885 11.2662C19.2401 11.1998 19.9276 11.7584 19.994 12.61C20.0604 13.4967 19.4354 14.2154 18.5839 14.2819C17.7635 14.3483 17.0448 13.7233 16.9784 12.9069C16.912 12.0201 17.5018 11.3639 18.3885 11.2662ZM11.1776 9.16857C11.1112 9.07092 11.1464 8.97326 11.244 8.90685C13.1112 7.20373 15.8964 6.8756 18.0604 8.54748C18.619 9.00451 18.9784 9.95763 18.6815 10.5123C18.5487 10.7428 18.3846 10.8404 18.1893 10.9069C17.7323 11.1022 17.3026 11.3014 17.0096 11.7272C16.7128 12.1529 16.6503 12.6451 16.7792 13.1686C16.8768 13.5944 17.0409 14.0553 16.6151 14.4459C16.3846 14.6764 15.2714 14.8717 14.9784 14.6764C14.8456 14.5787 14.8807 14.4811 14.912 14.3483C15.0096 13.5279 14.8143 12.774 14.5175 12.0553C14.4198 11.7936 14.4511 11.6608 14.7128 11.5983C15.1698 11.4654 15.5995 11.2389 15.9237 10.9108C16.6464 10.2233 16.4823 9.33654 15.5292 8.94592C14.7753 8.61779 13.9901 8.6842 13.2362 8.7506C12.5214 8.77795 11.8339 8.97326 11.1776 9.16857ZM8.03308 18.2467C8.03308 17.3951 8.68933 16.7389 9.47449 16.7389C10.2596 16.7389 11.0135 17.4615 11.0135 18.2819C11.0135 19.067 10.3573 19.7584 9.60339 19.7897C8.65417 19.7897 8.03308 19.1998 8.03308 18.2467ZM10.7518 10.024C10.8495 9.92638 10.9159 9.95763 11.0135 10.024C13.1776 11.3365 14.2909 13.9225 13.3065 16.4459C13.0448 17.1022 12.1932 17.7584 11.5682 17.5944C11.3065 17.5279 11.1737 17.399 11.0448 17.235C10.7479 16.8404 10.4237 16.4811 9.93152 16.317C9.40808 16.1529 8.94714 16.2506 8.49011 16.5123C8.09558 16.7428 7.70496 17.0358 7.21277 16.7428C6.91589 16.5787 6.42761 15.5631 6.52527 15.235C6.59168 15.1022 6.72058 15.1022 6.85339 15.1022C7.67371 14.9694 8.32996 14.5787 8.95105 14.0553C9.14636 13.8912 9.31043 13.8912 9.47449 14.1217C9.73621 14.5162 10.0643 14.8444 10.4901 15.0709C11.3417 15.5631 12.162 15.1373 12.2596 14.1529C12.3573 13.3326 12.0643 12.6139 11.8026 11.8912C11.5057 11.235 11.1464 10.6139 10.7518 10.024ZM4.32996 3.33654C4.39636 3.33654 4.56043 3.36779 4.72449 3.40295C5.93543 3.63342 6.68933 3.20763 7.08386 2.0592C7.34558 1.30529 7.90418 1.07482 8.62293 1.46935C8.65418 1.46935 8.65418 1.5006 8.68933 1.5006C9.44324 1.92638 9.44324 1.99279 8.98621 2.64904C8.59168 3.17248 8.39636 3.76232 8.29871 4.38732C8.2323 4.7467 8.10339 4.8131 7.77527 4.6842C7.25183 4.48888 6.69324 4.48888 6.13855 4.6842C5.51746 4.87951 5.25183 5.4381 5.45105 6.0592C5.71277 6.87951 6.43543 7.23888 7.05652 7.66467C7.67761 8.09045 8.40027 8.32092 9.08777 8.61388C9.18542 8.64513 9.34949 8.64513 9.31824 8.8092C9.28699 8.90685 9.15418 8.90685 9.02136 8.90685C7.5448 8.97326 6.13855 8.74279 4.99011 7.75842C3.90418 6.8756 3.11511 5.79357 3.24793 4.28576C3.34558 3.79357 3.70496 3.4342 4.32996 3.33654ZM6.85339 1.5006C6.95105 2.35217 6.36121 3.07482 5.47839 3.20373C4.72449 3.30138 3.93933 2.68029 3.84168 1.95763C3.74402 1.00842 4.26746 0.320916 5.15418 0.219353C5.96668 0.125603 6.75183 0.746697 6.85339 1.5006ZM9.70105 10.2194C9.56824 10.8756 9.27527 11.4967 8.88074 12.0553C7.70105 13.8248 5.99793 14.5475 3.90027 14.3483C3.14636 14.2819 2.52527 13.6608 2.45886 13.0358C2.42761 12.774 2.49011 12.5787 2.65418 12.3795C2.88464 12.0826 3.07996 11.8209 3.17761 11.4615C3.37293 10.7389 3.11121 10.149 2.58777 9.6256C1.86511 8.90295 1.96668 8.2506 2.81824 7.72326C2.91589 7.65685 3.04871 7.59045 3.17761 7.52795C3.37293 7.43029 3.53699 7.43029 3.60339 7.66076C3.90027 8.41467 4.49011 8.97326 5.14246 9.43029C5.37293 9.6256 5.37293 9.75842 5.17371 9.98888C4.77918 10.4147 4.55261 10.9381 4.51746 11.5279C4.45105 12.2506 4.87683 12.7076 5.59949 12.7076C6.05652 12.7076 6.48621 12.5436 6.87683 12.3483C7.89246 11.8248 8.67761 11.0709 9.43152 10.2819C9.54089 10.2506 9.57214 10.1842 9.70105 10.2194ZM1.64246 12.5475C0.8573 12.6451 0.0682378 11.9889 0.00573778 11.1725C-0.0606685 10.3873 0.595582 9.59826 1.34949 9.53576C2.20105 9.4381 2.98621 10.0279 3.05261 10.8131C3.08386 11.5631 2.59168 12.4811 1.64246 12.5475ZM10.3573 8.68029C10.2245 8.7467 10.162 8.64904 10.1268 8.54748C8.91589 6.28576 9.27527 3.4342 11.4042 1.73107C11.9628 1.27404 13.0096 1.17248 13.4706 1.63342C13.6659 1.79748 13.7011 1.99279 13.7323 2.22326C13.7987 2.71545 13.8964 3.20763 14.2245 3.59826C14.5839 4.02404 15.0448 4.1881 15.5682 4.15685C16.0253 4.15685 16.4862 4.09045 16.7792 4.61388C16.9432 4.91076 16.8768 6.05529 16.6151 6.28576C16.4823 6.38342 16.3846 6.31701 16.287 6.28576C15.5331 5.98888 14.7479 5.98888 13.9589 6.1217C13.6971 6.15295 13.5643 6.09045 13.5643 5.79357C13.5331 5.30138 13.4315 4.84435 13.1698 4.41857C12.6776 3.53185 11.7596 3.5006 11.1698 4.32092C10.6776 4.97717 10.5487 5.76232 10.4159 6.54748C10.2909 7.23498 10.3261 7.95763 10.3573 8.68029ZM15.4042 0.87951C16.2245 0.813103 17.0096 1.46935 17.076 2.28967C17.1425 3.07482 16.4862 3.82873 15.701 3.89513C14.8495 3.96154 14.0956 3.33654 14.0292 2.52013C13.9628 1.69982 14.5526 0.945916 15.4042 0.87951Z" fill="white"/>
</svg>

<svg xmlns="http://www.w3.org/2000/svg" width="20" height="20" fill="none" viewBox="0 0 20 20">
    <path fill="#fff" d="M18.389 11.266c.851-.066 1.539.492 1.605 1.344.066.887-.559 1.605-1.41 1.672a1.5 1.5 0 0 1-1.606-1.375c-.066-.887.524-1.543 1.41-1.64m-7.21-2.097c-.067-.098-.032-.196.066-.262 1.867-1.703 4.652-2.031 6.816-.36.559.458.918 1.41.622 1.965a.82.82 0 0 1-.493.395c-.457.195-.886.394-1.18.82-.296.426-.359.918-.23 1.442.098.425.262.886-.164 1.277-.23.23-1.344.426-1.637.23-.132-.097-.097-.195-.066-.328.098-.82-.098-1.574-.395-2.293-.097-.261-.066-.394.196-.457.457-.133.887-.36 1.21-.687.723-.688.56-1.574-.394-1.965-.754-.328-1.539-.262-2.293-.195-.715.027-1.402.222-2.058.418m-3.145 9.078c0-.852.656-1.508 1.441-1.508.786 0 1.54.723 1.54 1.543 0 .785-.657 1.476-1.41 1.508-.95 0-1.57-.59-1.57-1.543m2.719-8.223c.098-.098.164-.066.261 0 2.165 1.313 3.278 3.899 2.294 6.422-.262.656-1.114 1.312-1.739 1.148-.261-.066-.394-.195-.523-.359-.297-.395-.621-.754-1.113-.918-.524-.164-.985-.066-1.442.195-.394.23-.785.524-1.277.23-.297-.163-.785-1.179-.688-1.507.067-.133.196-.133.328-.133.82-.133 1.477-.523 2.098-1.047.195-.164.36-.164.523.067.262.394.59.722 1.016.949.852.492 1.672.066 1.77-.918.097-.82-.196-1.54-.457-2.262a13 13 0 0 0-1.051-1.867M4.33 3.337c.066 0 .23.03.394.066 1.211.23 1.965-.195 2.36-1.344.262-.754.82-.984 1.539-.59.031 0 .031.032.066.032.754.425.754.492.297 1.148-.394.523-.59 1.113-.687 1.738-.067.36-.196.426-.524.297a2.36 2.36 0 0 0-1.636 0c-.622.196-.887.754-.688 1.375.262.82.984 1.18 1.606 1.606.62.425 1.343.656 2.03.949.098.031.262.031.231.195-.031.098-.164.098-.297.098-1.476.066-2.882-.164-4.03-1.149-1.087-.882-1.876-1.964-1.743-3.472.098-.492.457-.852 1.082-.95M6.853 1.5c.098.851-.492 1.574-1.375 1.703-.754.097-1.539-.524-1.636-1.246-.098-.95.425-1.637 1.312-1.739.813-.093 1.598.528 1.7 1.282m2.848 8.718a4.9 4.9 0 0 1-.82 1.836c-1.18 1.77-2.883 2.492-4.98 2.293-.755-.066-1.376-.687-1.442-1.312a.8.8 0 0 1 .195-.656c.23-.297.426-.56.524-.919.195-.722-.067-1.312-.59-1.835-.723-.723-.621-1.375.23-1.903.098-.066.23-.133.36-.195.195-.098.359-.098.425.133.297.754.887 1.312 1.54 1.77.23.195.23.327.03.558-.394.426-.62.95-.656 1.539-.066.723.36 1.18 1.082 1.18.458 0 .887-.164 1.278-.36 1.015-.523 1.8-1.277 2.555-2.066.109-.031.14-.098.269-.063m-8.059 2.329c-.785.097-1.574-.56-1.636-1.376-.067-.785.59-1.574 1.343-1.636.852-.098 1.637.492 1.704 1.277.03.75-.461 1.668-1.41 1.734m8.715-3.868c-.132.067-.195-.031-.23-.133-1.211-2.261-.852-5.113 1.277-6.816.559-.457 1.606-.559 2.067-.098.195.164.23.36.261.59.067.492.164.985.493 1.375.359.426.82.59 1.343.559.457 0 .918-.067 1.211.457.164.297.098 1.441-.164 1.672-.133.097-.23.031-.328 0-.754-.297-1.54-.297-2.328-.164-.262.03-.395-.032-.395-.328-.03-.493-.133-.95-.394-1.375-.492-.887-1.41-.918-2-.098-.492.656-.621 1.441-.754 2.226-.125.688-.09 1.41-.059 2.133m5.047-7.8c.82-.067 1.606.59 1.672 1.41.066.785-.59 1.539-1.375 1.605-.851.067-1.605-.558-1.672-1.375-.066-.82.524-1.574 1.375-1.64"/>
</svg>
